icons/svgs/unlock-solid.svg

<svg width="24" height="24" viewBox="0 0 24 24" fill="none" xmlns="http://www.w3.org/2000/svg">
<path d="M8.875 7.625V9.5H18.25C19.6172 9.5 20.75 10.6328 20.75 12V19.5C20.75 20.9062 19.6172 22 18.25 22H5.75C4.34375 22 3.25 20.9062 3.25 19.5V12C3.25 10.6328 4.34375 9.5 5.75 9.5H6.375V7.625C6.375 4.53906 8.875 2 12 2C14.2266 2 16.1797 3.32812 17.0781 5.24219C17.3516 5.86719 17.0781 6.60938 16.4531 6.88281C15.8672 7.19531 15.0859 6.92188 14.8125 6.29688C14.3047 5.24219 13.2109 4.5 12 4.5C10.2422 4.5 8.875 5.90625 8.875 7.625Z" fill="black"/>
</svg>

<svg xmlns="http://www.w3.org/2000/svg" width="24" height="24" fill="currentColor" class="icon-unlock-solid" viewBox="0 0 24 24">
  <mask id="a" width="18" height="20" x="3" y="2" maskUnits="userSpaceOnUse" style="mask-type:alpha">
    <path d="M8.875 7.625V9.5h9.375c1.367 0 2.5 1.133 2.5 2.5v7.5c0 1.406-1.133 2.5-2.5 2.5H5.75a2.47 2.47 0 0 1-2.5-2.5V12c0-1.367 1.094-2.5 2.5-2.5h.625V7.625C6.375 4.539 8.875 2 12 2c2.227 0 4.18 1.328 5.078 3.242.274.625 0 1.367-.625 1.64-.586.313-1.367.04-1.64-.585C14.305 5.242 13.21 4.5 12 4.5a3.11 3.11 0 0 0-3.125 3.125"/>
  </mask>
  <g mask="url(#a)">
    <path d="M0 0h24v24H0z"/>
  </g>
</svg>
